!!!!SEGMENT: d-b--slg-bohn-ms-mus-111--001-010_jarzebski-adam--canzoni-e-concerti-10-susanna-videns.krn
!!!cenid: 16xx:1783
!!!COM: Jarzębski, Adam
!!!COM-rismID: pe30017782
!!!CDT: 1590-1648
!!!CNT: Polish
!!!GTL: Canzoni e Concerti
!!!OTL: 10. Susanna videns
!!!OMV: 010
!!!PDT: 1627
!!!AGN:
!!!YEC: Copyright 2022 Narodowy Instytut Fryderyka Chopina (https://polishscores.org)
!!!YEM: License CC-BY-4.0 (https://creativecommons.org/licenses/by/4.0)
!!!SMS-siglum: D-B
!!!SMS-shelfmark: Slg Bohn Ms.mus. 111
!!!SMS-shelfwork: 001-010 G
!!!SMS-variant:
!!!SMS-altvar:
!!!NIFC-rismSourceID: 1001062014
!!!NIFC-rismChildID: 1001062014
!!!NIFC-islandoraID: none
!!!URL-pdf-islandora:
!!!URL-scan: https://digital.staatsbibliothek-berlin.de/werkansicht/?PPN=PPN1049147219 @EN{Scan on Staatsbibliothek zu Berlin Website} @PL{Skany w portalu Staatsbibliothek zu Berlin}
!!!IIIF:
!!!ONB-nifc: UWAGA: Prima vox: s. 18-19, Seconda vox: s. 78-79, Basso continuo: s. 170-171. Uwaga: proszę wpisywać partie tylko występujące w danym koncercie i nazywać partie wg określeń podawanych przy danym utworze. Kody instr. dla humdrumowców podane zostaną na forum.
!!!AIN: 2 bass 2 soprn 1 viola
!!!key: g
**kern	**fba	**kern	**kern
*	*	*group1	*group1
*part3	*	*part2	*part1
*staff3	*	*staff2	*staff1
*I"Baſso Continúo.	*	*I"Sopr: è Baſso. Bastarda.	*I"Soprano è Basso.
*mI"Basso continuo	*	*mI"Soprano|e Basso | Bastarda	*mI"Soprano e Basso
*I'bc	*	*I'S|B|vla	*I'S|B
*	*	*ICvox	*ICvox
*	*	*Isoprn|Ibass|Iviola	*Isoprn|Ibass
*IGcont	*	*	*
*clefC3	*	*clefC3	*clefG2
*mclefC4	*	*mclefG2	*
*k[b-]	*	*k[b-]	*k[b-]
*g:	*	*g:	*g:
*M2/2	*	*M2/2	*M2/2
*met(C|)	*	*met(C|)	*met(C|)
*mmet(c|)	*	*mmet(c|)	*mmet(c|)
=1-	=1-	=1-	=1-
!!LO:TX:t=P:problem: all\right or middle	!	!
!LO:TX:b:t=Súsanna videns.:mod=	!	!	!LO:TX:a:t=Súſanna videns.:mod=
1.g	.	1r	1g
=2-	=2-	=2-	=2-
.	.	2r	1.b-
!LO:TX:t=P:problem:kreska pseudotaktowa	!	!	!
*2\right	*	*2\right	*
2g\	.	2g\	.
=3-	=3-	=3-	=3-
2e-X\	.	2e-X\	.
*	*	*	*2\right
2c/	.	2c/	2cc\
=4-	=4-	=4-	=4-
2g\	.	4g\	1dd
.	.	4G/	.
!LO:TX:t=P:problem:kreska pseudotaktowa	!	!	!
2G/	.	4.B-/	.
!	!	!LO:TX:t=P:problem:kreska pseudotaktowa	!
.	.	8c/	.
=5-	=5-	=5-	=5-
2B-/	.	2d\	4r
.	.	.	4dd\
*clefF4	*	*	*
2G\	.	2r	4b-/
.	.	.	4g/
*	*	*clefF4	*
=6-	=6-	=6-	=6-
2E-X\	.	4r	1gg
.	.	4G\	.
!LO:TX:t=P:problem:kreska pseudotaktowa	!	!	!
2C/	.	4E-X\	.
.	.	4C/	.
=7-	=7-	=7-	=7-
1G	.	2G\	8r
.	.	.	8g/L
.	.	.	8b-/
.	.	.	8cc/J
*	*	*clefC4	*
*	*	*k[b-]	*
.	.	8r	2dd\
.	.	8G\L	.
.	.	8B-\	.
!	!	!LO:TX:t=P:problem:kreska pseudotaktowa	!
.	.	8c\J	.
*	*	*custos:d	*
!	!	!LO:LB:g=original	!
=8-	=8-	=8-	=8-
2B-\	.	2d\	8r
.	.	.	8dd\L
.	.	.	8ff\
.	.	.	8gg\J
!LO:TX:t=P:problem:kreska pseudotaktowa	!	!	!LO:TX:t=P:problem:kreska pseudotaktowa
2A\	.	8r	2aa\
.	.	8e\L	.
!	!	!LO:TX:a:t=P:problem:# above	!
.	.	8c#X\	.
!	!	!LO:TX:t=P:problem:kreska pseudotaktowa	!
.	.	8A\J	.
=9-	=9-	=9-	=9-
1D	.	2d\	8r
.	.	.	8aa\L
.	.	.	8ff\
.	.	.	8dd\J
.	.	8r	8aa\L
.	.	8D/L	16gg\L
.	.	.	16ff\JJ
.	.	8F/	16ee\LL
.	.	.	16dd\
!	!	!LO:TX:t=P:problem:kreska pseudotaktowa	!
.	.	8G/J	16cc\
.	.	.	16b-\JJ
*	*	*	*custos:a
!	!	!	!LO:LB:g=original
=10-	=10-	=10-	=10-
1.F	.	2A/	8a/L
.	.	.	8cc/
.	.	.	8a/
.	.	.	8f/J
.	.	8r	4.cc\
.	.	8cny\L	.
.	.	8A\	.
!	!	!LO:TX:t=P:problem:kreska pseudotaktowa	!LO:TX:t=P:problem:kreska pseudotaktowa
.	.	8F\J	8aa\
=11-	=11-	=11-	=11-
.	.	2f\	8ff\L
.	.	.	8dd\J
.	.	.	4.aa\
2G\	.	8r	.
.	.	8f\L	8aa\
.	.	8e\	8gg\L
!	!	!	!LO:TX:t=P:problem:kreska pseudotaktowa
.	.	8d\J	8ff\J
=12-	=12-	=12-	=12-
!LO:TX:t=P:problem:kreska pseudotaktowa	!	!	!
1A	.	4c#X\	8ee\L
.	.	.	8aa\
.	.	2d\	8gg\
.	.	.	8ff\J
.	.	.	4.ee\
!	!	!LO:TX:t=P:problem:kreska pseudotaktowa	!
.	.	4c#X\	.
!	!	!	!LO:TX:t=P:problem:kreska pseudotaktowa
.	.	.	8dd\
=13-	=13-	=13-	=13-
1D	.	2d\	8dd\L
.	.	.	8aa\
.	.	.	8ff\
.	.	.	8dd\J
*	*	*clefF4	*
.	.	2D/	8aa\L
.	.	.	16gg\L
.	.	.	16ff\JJ
.	.	.	32ee\LLL
.	.	.	32dd\
.	.	.	32cc\
.	.	.	32b-\JJJ
.	.	.	32a/LLL
.	.	.	32g/
.	.	.	32f/
!	!	!	!LO:TX:t=P:problem:kreska pseudotaktowa
.	.	.	32e/JJJ
=14-	=14-	=14-	=14-
!	!	!	!LO:TX:t=P:problem:mixed beam
2G\	.	2G\	8d/L
.	.	.	8dd\J
.	.	.	8b-/L
.	.	.	8g/J
*	*	*	*custos:dd
!	!	!	!LO:LB:g=original
!	!	!	!LO:MO:mod=*null
*	*	*	*clefC1
*	*	*	*k[b-]
!	!	!LO:TX:t=P:problem:kreska pseudotaktowa	!
2F\	.	2F\	8dd\L
.	.	.	16cc\L
.	.	.	16b-\JJ
.	.	.	32a/LLL
.	.	.	32g/
.	.	.	32f/
.	.	.	32e/JJJ
.	.	.	32d/LLL
.	.	.	32c/
.	.	.	32B-/
!	!	!	!LO:TX:t=P:problem:kreska pseudotaktowa
.	.	.	32A/JJJ
*custos:E-	*	*custos:E-	*
!LO:LB:g=original	!	!LO:LB:g=original	!
=15-	=15-	=15-	=15-
2E-X\	.	8E-X\L	2G/
.	.	8B-\	.
.	.	8G\	.
.	.	8E-\J	.
2BB-/	.	8B-\L	2r
.	.	8F\J	.
.	.	8D/L	.
!	!	!LO:TX:t=P:problem:kreska pseudotaktowa	!
.	.	8BB-/J	.
=16-	=16-	=16-	=16-
2.B-\	.	8B-\L	1r
.	.	16A\L	.
.	.	16G\JJ	.
.	.	16F\LL	.
.	.	16E-\	.
.	.	16D\	.
.	.	16C\JJ	.
!	!	!LO:TX:t=P:problem:mixed beam	!
.	.	8BB-/L	.
.	.	8B-\	.
!LO:TX:t=P:problem:kreska pseudotaktowa	!	!	!
4A\	.	8B-\	.
!	!	!LO:TX:t=P:problem:kreska pseudotaktowa	!
.	.	8A\J	.
!	!	!	!LO:MO:mod=*null
*	*	*	*clefG2
=17-	=17-	=17-	=17-
2.G\	.	2G\	8r
.	.	.	8dd\L
.	.	.	8dd\
.	.	.	8cc\J
!	!	!	!LO:TX:t=P:problem:mixed beam
.	.	8r	8b-/L
.	.	8G\L	8bb-\
4F\	.	8G\	8bb-\
!	!	!LO:TX:t=P:problem:kreska pseudotaktowa	!LO:TX:t=P:problem:kreska pseudotaktowa
.	.	8F\J	8aa\J
=18-	=18-	=18-	=18-
2E-X\	.	8E-X\L	8gg\L
.	.	16F\L	16aa\L
!	!	!	!LO:SIC:o=16gg\J
.	.	16E-\JJ	16ggJJ
!	!	!	!LO:SIC:o=8.ff\
.	.	8.D/L	8.ffL
!	!	!	!LO:TX:a:t=P:problem:♭ above
.	.	16C/Jk	16ee-X\Jk
!LO:TX:t=P:problem:kreska pseudotaktowa	!	!	!
2BB-/	.	8BB-/L	8dd\L
.	.	16C/L	16ee-X\L
!	!	!	!LO:SIC:o=16dd\J
.	.	16BB-/JJ	16ddJJ
!	!	!	!LO:SIC:o=8.cc\
.	.	8.AA/L	8.ccL
!	!	!LO:TX:t=P:problem:kreska pseudotaktowa	!
.	.	16GG/Jk	16b-\Jk
*	*	*custos:FF	*
!	!	!LO:LB:g=original	!
=19-	=19-	=19-	=19-
!	!	!LO:TX:t=P:problem:mixed beam	!
1F	.	16FF/LL	4cc\
.	.	16F\	.
.	.	16G\	.
.	.	16A\JJ	.
.	.	16B-\LL	16dd\LL
.	.	16A\	16cc\
.	.	16B-\	16dd\
!	!	!LO:SIC:o=16A\	!
.	.	16AJJ	16cc\JJ
!	!	!LO:SIC:o=16B-\	!
.	.	16B-LL	4.cc\
.	.	16A\	.
.	.	16B-\	.
!	!	!LO:SIC:o=16A\	!
.	.	16AJJ	.
!	!	!LO:SIC:o=16B-\	!
.	.	16B-LL	.
.	.	16A\	.
!	!	!	!LO:TX:t=P:problem:kreska pseudotaktowa
.	.	16G\	8b-/
!	!	!LO:TX:t=P:problem:kreska pseudotaktowa	!
.	.	16A\JJ	.
=20-	=20-	=20-	=20-
2G\	.	2B-\	2b-/
!LO:TX:t=P:problem:kreska pseudotaktowa	!	!	!
2B-\	.	4r	4r
!	!	!LO:TX:t=P:problem:kreska pseudotaktowa	!
.	.	4BB-/	4dd\
=21-	=21-	=21-	=21-
2.BB-/	.	4BB-/	4dd\
.	.	4BB-/	4dd\
.	.	2.BB-/	4.dd\
4BB-/	.	.	.
!	!	!	!LO:TX:t=P:problem:kreska pseudotaktowa
!	!	!	!LO:TX:a:t=P:problem:♭ above
.	.	.	8ee-X\
=22-	=22-	=22-	=22-
!LO:TX:t=P:problem:kreska pseudotaktowa	!	!	!
1BB-	.	.	8ff\L
!	!	!	!LO:TX:a:t=P:problem:♭ above
.	.	.	8ee-X\
.	.	4BB-/	8gg\
.	.	.	8ff\J
.	.	2BB-/	8gg\L
.	.	.	8ff\
!	!	!	!LO:TX:a:t=P:problem:♭ above
.	.	.	8.ee-X\
!	!	!	!LO:TX:t=P:problem:kreska pseudotaktowa
.	.	.	16dd\Jk
=23-	=23-	=23-	=23-
2FF/	.	4FF/	4cc\
.	.	8F\L	8aa\L
.	.	8F\J	8aa\J
4FF/	.	4F\	4aa\
4FF/	.	4F\	4aa\
=24-	=24-	=24-	=24-
2BB-/	.	2BB-/	2bb-\
!LO:TX:t=P:problem:kreska pseudotaktowa	!	!	!
2GG/	.	8r	8r
.	.	8G\L	8bb-\L
.	.	8F\	8aa\
!	!	!LO:TX:t=P:problem:kreska pseudotaktowa	!
.	.	8Eny\J	8gg\J
=25-	=25-	=25-	=25-
2D/	.	8D/L	2ff#X\
.	.	8C/	.
.	.	8BB-/	.
.	.	8AA/J	.
!	!	!LO:MO:mod=*null	!
*	*	*clefF5	*custos:aa
!	!	!LO:MO:mod=*null	!
*	*	*k[b-]	*
*	*	*custos:GG	*
!	!	!LO:LB:g=original	!LO:LB:g=original
2GG/	.	8GG/L	8r
.	.	8FF/	8aa\L
.	.	8EE/	8gg\
!	!	!LO:TX:t=P:problem:kreska pseudotaktowa	!LO:TX:t=P:problem:kreska pseudotaktowa
.	.	8DD/J	8ff#\J
=26-	=26-	=26-	=26-
!LO:TX:t=P:problem:kreska pseudotaktowa	!	!LO:TX:t=P:problem:mixed beam	!
1C	.	8CC/L	2eeny\
.	.	8C\	.
.	.	8E\	.
.	.	8D\J	.
.	.	8C\L	8r
.	.	8G\	8bb-\L
.	.	8F\	8aa\
!	!	!LO:TX:t=P:problem:kreska pseudotaktowa	!LO:TX:t=P:problem:kreska pseudotaktowa
.	.	8E\J	8gg\J
=27-	=27-	=27-	=27-
1D	.	8D\L	8ff#X\L
.	.	8E\J	8gg\
!	!	!LO:TX:t=P:problem:mixed beam	!
.	.	16F#X\LL	8aa\
.	.	16D\	.
.	.	16G\	8bb-\J
.	.	16GG/JJ	.
.	.	4D\	2aa\
.	.	4DD/	.
*custos:GG	*	*	*
!LO:LB:g=original	!	!	!
=28-	=28-	=28-	=28-
2GG/	.	1GG	1gg
!LO:MO:null:mod=*clefC4	!	!	!
*clefC3	*	*	*
!LO:MO:mod=*null	!	!	!
*k[b-]	*	*	*
1g\	.	.	.
!	!	!LO:MO:mod=*clefC4	!
*	*	*clefC3	*
*	*	*k[b-]	*
=29-	=29-	=29-	=29-
.	.	1r	2r
2g\	.	.	2g/
=30-	=30-	=30-	=30-
2e-X\	.	4r	2b-/
.	.	4g\	.
!LO:TX:t=P:problem:kreska pseudotaktowa	!	!	!
2c/	.	4e-X\	2cc\
.	.	4c/	.
=31-	=31-	=31-	=31-
2g\	.	4g\	1dd
.	.	4G/	.
2G/	.	4.B-/	.
!	!	!LO:TX:t=P:problem:kreska pseudotaktowa	!
.	.	8c/	.
*	*	*custos:d	*
!	!	!LO:LB:g=original	!
=32-	=32-	=32-	=32-
2B-/	.	2d\	4r
.	.	.	4dd\
*clefF4	*	*	*
!LO:TX:t=P:problem:kreska pseudotaktowa	!	!	!
2G\	.	2r	4b-/
.	.	.	4g/
*	*	*clefF4	*
=33-	=33-	=33-	=33-
2E-X\	.	4r	2gg\
.	.	4G\	.
2C/	.	4E-X\	8r
.	.	.	8gg\L
!	!	!LO:TX:t=P:problem:kreska pseudotaktowa	!
.	.	4C/	8ee-X\
!	!	!	!LO:TX:t=P:problem:kreska pseudotaktowa
.	.	.	8cc\J
=34-	=34-	=34-	=34-
!LO:TX:t=P:problem:kreska pseudotaktowa	!	!	!
1G	.	2G\	8dd\
.	.	.	16g/LL
.	.	.	16a/J
.	.	.	8b-/
.	.	.	8cc/J
*	*	*clefC4	*custos:dd
*	*	*k[-]	*
!	!	!	!LO:LB:g=original
!	!	!	!LO:TX:t=P:problem:kreska pseudotaktowa
.	.	8r	2dd\
.	.	16G/LL	.
.	.	16A/J	.
.	.	8B-ny/	.
!	!	!LO:TX:t=P:problem:kreska pseudotaktowa	!
.	.	8c/J	.
=35-	=35-	=35-	=35-
2B-\	.	2d\	8r
.	.	.	16dd\LL
.	.	.	16eeny\J
.	.	.	8ffny\
.	.	.	8gg\J
2A\	.	8r	2aa\
.	.	16e\LL	.
.	.	16d\J	.
!	!	!LO:TX:a:t=P:problem:# above	!
.	.	8c#X\	.
!	!	!LO:TX:t=P:problem:kreska pseudotaktowa	!
.	.	8A\J	.
=36-	=36-	=36-	=36-
!LO:TX:t=P:problem:kreska pseudotaktowa	!	!	!
1D	.	2d\	8r
.	.	.	8aa\L
.	.	.	8ff\
.	.	.	8dd\J
.	.	8r	8aa\L
.	.	16D/LL	16gg\L
.	.	16Eny/J	16ff\
.	.	8F/	16ee\
.	.	.	16dd\
.	.	8G/J	16cc\
!	!	!	!LO:TX:t=P:problem:kreska pseudotaktowa
.	.	.	16b-\JJ
=37-	=37-	=37-	=37-
1.F	.	2A/	8a/L
.	.	.	16cc/L
.	.	.	16b-/J
.	.	.	8a/
.	.	.	8f/J
*	*	*custos:c	*
!	!	!LO:LB:g=original	!
.	.	8r	4.cc\
.	.	16cny\LL	.
.	.	16B-\J	.
.	.	8A\	.
!	!	!LO:TX:t=P:problem:kreska pseudotaktowa	!
.	.	8F\J	16aa\LL
!	!	!	!LO:TX:t=P:problem:kreska pseudotaktowa
.	.	.	16gg\JJ
=38-	=38-	=38-	=38-
.	.	2f\	8ff\L
.	.	.	8dd\J
.	.	.	4.aa\
2G\	.	8r	.
.	.	8f\L	8aa\
.	.	8e\	8gg\L
!	!	!	!LO:TX:t=P:problem:kreska pseudotaktowa
.	.	8d\J	8ff\J
=39-	=39-	=39-	=39-
1A	.	4c#X\	8ee\L
.	.	.	8aa\
.	.	2d\	8gg\
.	.	.	8ff\J
.	.	.	4.ee\
!	!	!LO:TX:t=P:problem:kreska pseudotaktowa	!
.	.	4c#X\	.
!	!	!	!LO:TX:t=P:problem:kreska pseudotaktowa
.	.	.	8dd\
*	*	*	*custos:dd
!	!	!	!LO:LB:g=original
=40-	=40-	=40-	=40-
!LO:TX:t=P:problem:kreska pseudotaktowa	!	!	!
1D	.	2d\	8dd\L
.	.	.	8aa\
.	.	.	8ff\
.	.	.	8dd\J
*	*	*clefF4	*
.	.	2D/	8aa\L
.	.	.	16gg\L
.	.	.	16ff\JJ
.	.	.	32ee\LLL
.	.	.	32dd\
.	.	.	32cc\
.	.	.	32b-\JJJ
.	.	.	32a/LLL
.	.	.	32g/
.	.	.	32f/
!	!	!	!LO:TX:t=P:problem:kreska pseudotaktowa
.	.	.	32e/JJJ
*custos:G	*	*	*
!LO:LB:g=original	!	!	!
=41-	=41-	=41-	=41-
!	!	!	!LO:TX:t=P:problem:mixed beam
2G\	.	2G\	8d/L
.	.	.	8dd\J
.	.	.	8b-/L
.	.	.	8g/J
!	!	!	!LO:MO:mod=*null
*	*	*	*clefC1
!	!	!	!LO:MO:mod=*null
*	*	*	*k[b-]
2F\	.	4r	8dd\L
.	.	.	16cc\L
.	.	.	16b-\JJ
!	!	!LO:TX:t=P:problem:kreska pseudotaktowa	!
.	.	4D/	32a/LLL
.	.	.	32g/
.	.	.	32f/
.	.	.	32e/JJJ
.	.	.	32d/LLL
.	.	.	32c/
.	.	.	32B-/
!	!	!	!LO:TX:t=P:problem:kreska pseudotaktowa
.	.	.	32A/JJJ
=42-	=42-	=42-	=42-
2E-X\	.	8E-X\L	2G/
.	.	8B-\	.
.	.	8G\	.
.	.	8E-\J	.
!LO:TX:t=P:problem:kreska pseudotaktowa	!	!	!
2BB-/	.	8B-\L	2r
!	!	!LO:SIC:o=8F\J	!
.	.	8F	.
!	!	!LO:SIC:o=8D/L	!
.	.	8D	.
!	!	!LO:TX:t=P:problem:kreska pseudotaktowa	!
.	.	8BB-ny/J	.
*	*	*custos:B-	*
!	!	!LO:LB:g=original	!
=43-	=43-	=43-	=43-
2.B-\	.	8B-\L	1r
.	.	16A\L	.
.	.	16G\JJ	.
.	.	16F/LL	.
!	!	!LO:SIC:v:o=16Eny/	!
.	.	16E-	.
.	.	16D/	.
.	.	16C/JJ	.
!	!	!LO:TX:t=P:problem:mixed beam	!
.	.	8BB-\L	.
.	.	8B-\	.
4A\	.	8B-\	.
!	!	!LO:TX:t=P:problem:kreska pseudotaktowa	!
.	.	8A\J	.
=44-	=44-	=44-	=44-
!	!	!	!LO:MO:mod=*null
*	*	*	*clefG2
!	!	!	!LO:MO:mod=*null
*	*	*	*k[b-]
2.G\	.	2G\	8r
.	.	.	8dd\L
.	.	.	8dd\
.	.	.	8cc\J
*	*	*	*custos:b-
!	!	!	!LO:LB:g=original
!	!	!	!LO:TX:t=P:problem:mixed beam
.	.	8r	8b-/L
.	.	8G\L	8bb-\
!LO:TX:t=P:problem:kreska pseudotaktowa	!	!	!
4F\	.	8G\	8bb-\
!	!	!LO:TX:t=P:problem:kreska pseudotaktowa	!LO:TX:t=P:problem:kreska pseudotaktowa
.	.	8F\J	8aa\J
=45-	=45-	=45-	=45-
2E-X\	.	8E-X\L	8gg\L
.	.	16F\L	16aa\L
.	.	16E-\JJ	16gg\JJ
.	.	8.D/L	8ff\L
!	!	!	!LO:TX:a:t=P:problem:♭ above
.	.	.	8ee-X\J
.	.	16C/Jk	.
2BB-/	.	8BB-/L	8dd\L
.	.	16C/L	16ee-X\L
.	.	16BB-/JJ	16dd\JJ
.	.	8.AA/L	8cc\L
!	!	!	!LO:TX:t=P:problem:kreska pseudotaktowa
.	.	.	8b-\J
!	!	!LO:TX:t=P:problem:kreska pseudotaktowa	!
.	.	16GG/Jk	.
=46-	=46-	=46-	=46-
!LO:TX:t=P:problem:kreska pseudotaktowa	!	!LO:TX:t=P:problem:mixed beam	!
1F	.	16FF/LL	4cc\
.	.	16F\	.
.	.	16G\	.
.	.	16A\JJ	.
.	.	16B-\LL	16dd\LL
.	.	16A\	16cc\
.	.	16B-\	16dd\
.	.	16A\JJ	16cc\JJ
.	.	16B-\LL	4.cc\
.	.	16A\	.
.	.	16B-\	.
.	.	16A\JJ	.
*	*	*custos:B-	*
!	!	!LO:LB:g=original	!
.	.	16B-\LL	.
.	.	16A\	.
!	!	!	!LO:TX:t=P:problem:kreska pseudotaktowa
.	.	16G\	8b-/
!	!	!LO:TX:t=P:problem:kreska pseudotaktowa	!
.	.	16A\JJ	.
=47-	=47-	=47-	=47-
2G\	.	2B-\	2b-/
2B-\	.	4r	4r
.	.	4BB-/	4dd\
=48-	=48-	=48-	=48-
2.BB-/	.	4BB-/	4dd\
.	.	4BB-/	4dd\
.	.	2.BB-/	4.dd\
!LO:TX:t=P:problem:kreska pseudotaktowa	!	!	!
4BB-/	.	.	.
!	!	!	!LO:TX:t=P:problem:kreska pseudotaktowa
!	!	!	!LO:TX:a:t=P:problem:♭ above
.	.	.	8ee-X\
=49-	=49-	=49-	=49-
1BB-	.	.	8ff\L
!	!	!	!LO:TX:a:t=P:problem:♭ above
.	.	.	8ee-X\
.	.	4BB-/	8gg\
.	.	.	8ff\J
!	!	!LO:TX:t=P:problem:kreska pseudotaktowa	!
.	.	2BB-/	8gg\L
.	.	.	8ff\
!	!	!	!LO:TX:a:t=P:problem:♭ above
.	.	.	8.ee-X\
.	.	.	16dd\Jk
*	*	*	*custos:cc
!	!	!	!LO:LB:g=original
=50-	=50-	=50-	=50-
2FF/	.	4FF/	4cc\
.	.	8F\L	8aa\L
.	.	8F\J	8aa\J
4FF/	.	4F\	4aa\
!	!	!LO:TX:t=P:problem:kreska pseudotaktowa	!LO:TX:t=P:problem:kreska pseudotaktowa
4FF/	.	4F\	4aa\
=51-	=51-	=51-	=51-
2BB-/	.	2BB-/	2bb-\
2GG/	.	8r	8r
!	!	!LO:MO:mod=*null	!
*	*	*clefF5	*
.	.	8G\L	8bb-\L
.	.	8F\	8aa\
!	!	!LO:TX:t=P:problem:kreska pseudotaktowa	!
.	.	8Eny\J	8gg\J
=52-	=52-	=52-	=52-
2D/	.	8D\L	2ff#X\
.	.	8C\	.
.	.	8BB-\	.
.	.	8AA\J	.
!LO:TX:t=P:problem:kreska pseudotaktowa	!	!	!
2GG/	.	8GG/L	8r
.	.	8FF/	8aa\L
.	.	8EE/	8gg\
.	.	8DD/J	8ff#\J
*custos:C	*	*custos:CC	*
!LO:PB:g=original	!	!LO:LB:g=original	!
=53-	=53-	=53-	=53-
!	!	!LO:TX:t=P:problem:mixed beam	!
1C	.	8CC/L	2eeny\
.	.	8C\	.
.	.	8E\	.
.	.	8D\J	.
.	.	8C\L	8r
.	.	8G\	8bb-\L
.	.	8F\	8aa\
!	!	!LO:TX:t=P:problem:kreska pseudotaktowa	!LO:TX:t=P:problem:kreska pseudotaktowa
.	.	8E\J	8gg\J
=54-	=54-	=54-	=54-
!LO:TX:t=P:problem:kreska pseudotaktowa	!	!	!
1D	.	8D\L	8ff#X\L
.	.	8E\J	8gg\
!	!	!LO:TX:t=P:problem:mixed beam	!
.	.	16F#X\LL	8aa\
.	.	16D\	.
.	.	16G\	8bb-\J
.	.	16GG/JJ	.
.	.	4D\	2aa\
.	.	4DD/	.
=55-	=55-	=55-	=55-
!	!	!LO:TX:t=P:problem:kreska pseudotaktowa	!
1GG	.	1GG	4gg\
.	.	.	4dd\
.	.	.	4dd\
.	.	.	4dd\
!	!	!LO:MO:mod=*null	!
*	*	*clefF4	*
=56-	=56-	=56-	=56-
!LO:TX:t=P:problem:kreska pseudotaktowa	!	!	!
1G	.	4r	4b-/
.	.	4G\	16g/LL
.	.	.	16a/
.	.	.	16b-/
.	.	.	16cc/JJ
*	*	*	*custos:dd
!	!	!	!LO:LB:g=original
.	.	4G\	16dd\LL
.	.	.	16ee-X\
.	.	.	16cc\
.	.	.	16dd\JJ
!	!	!LO:TX:t=P:problem:kreska pseudotaktowa	!
.	.	4G\	16b-/LL
.	.	.	16cc/
.	.	.	16a/
.	.	.	16b-/JJ
=57-	=57-	=57-	=57-
1C	-	4E-X\	1g
.	.	16C\LL	.
.	.	16D\	.
!	!	!LO:TX:a:t=P:problem:♭ above	!
.	.	16E-X\	.
.	.	16Fny\JJ	.
.	.	16G\LL	.
!	!	!LO:TX:a:t=P:problem:♭ above	!
.	.	16A-X\	.
.	.	16F\	.
.	.	16G\JJ	.
.	.	16E-X\LL	.
.	.	16F\	.
.	.	16D\	.
.	.	16E-X\JJ	.
*	*	*custos:D	*
!	!	!LO:LB:g=original	!
=58-	=58-	=58-	=58-
0D	.	1D	4r
.	.	.	4aa\
.	.	.	4aa\
!	!	!	!LO:TX:t=P:problem:kreska pseudotaktowa
.	.	.	4aa\
=59-	=59-	=59-	=59-
*	*	*clefC4	*
!	!	!LO:MO:mod=*null	!
*	*	*k[b-]	*
!LO:TX:t=P:problem:kreska pseudotaktowa	!	!	!
.	.	4r	4ffny\
.	.	4d\	16dd\LL
.	.	.	16eeny\
.	.	.	16ff\
.	.	.	16gg\JJ
.	.	4d\	16aa\LL
.	.	.	16bb-\
.	.	.	16gg\
.	.	.	16aa\JJ
.	.	4d\	16ff\LL
.	.	.	16gg\
.	.	.	16ee\
.	.	.	16ff\JJ
=60-	=60-	=60-	=60-
1.BB-	.	4B-\	1dd
.	.	16G/LL	.
.	.	16Any/	.
.	.	16B-/	.
.	.	16cny/JJ	.
.	.	16d\LL	.
.	.	16e-X\	.
.	.	16c\	.
.	.	16d\JJ	.
.	.	16B-\LL	.
.	.	16c\	.
.	.	16d\	.
!	!	!LO:TX:t=P:problem:kreska pseudotaktowa	!
.	.	16c\JJ	.
=61-	=61-	=61-	=61-
.	.	2B-\	4r
.	.	.	4dd\
*	*	*clefF4	*custos:dd
!	!	!	!LO:LB:g=original
2BB-/	.	4r	4dd\
!	!	!LO:TX:t=P:problem:kreska pseudotaktowa	!LO:TX:t=P:problem:kreska pseudotaktowa
.	.	4B-\	4dd\
=62-	=62-	=62-	=62-
2F\	.	4A\	4cc\
.	.	16B-\LL	16dd\LL
.	.	16A\	16cc\
.	.	16B-\	16dd\
.	.	16A\JJ	16cc\JJ
!LO:TX:t=P:problem:kreska pseudotaktowa	!	!	!
2G\	.	4G\	4b-/
.	.	16A\LL	16cc\LL
.	.	16G\	16b-\
.	.	16A\	16cc\
!	!	!	!LO:TX:t=P:problem:kreska pseudotaktowa
.	.	16G\JJ	16b-\JJ
*	*	*custos:D	*
!	!	!LO:LB:g=original	!
=63-	=63-	=63-	=63-
2D/	.	4.D/	4.a/
.	.	8d\	8ff\
4D/	.	4d\	4ff\
4D/	.	4d\	4ff\
=64-	=64-	=64-	=64-
!LO:TX:t=P:problem:kreska pseudotaktowa	!	!	!
1A	.	1A	8ee\L
.	.	.	16cc#X\L
.	.	.	16dd\JJ
!	!	!	!LO:TX:t=P:problem:mixed beam
.	.	.	16ee\LL
.	.	.	16a/
!	!	!	!LO:N:acc=#
!	!	!	!LO:TX:a:t=P:problem:# above
.	.	.	16bn/
!	!	!	!LO:TX:a:t=P:problem:# above
.	.	.	16cc#X/JJ
.	.	.	16dd\LL
!	!	!	!LO:TX:a:t=P:problem:# above
.	.	.	16cc#X\
.	.	.	16dd\
!	!	!	!LO:TX:a:t=P:problem:# above
!	!	!	!LO:SIC:o=16cc#X\
.	.	.	16cc#JJ
!	!	!	!LO:SIC:o=16dd\
.	.	.	16ddLL
!	!	!	!LO:TX:a:t=P:problem:# above
.	.	.	16cc#X\
!	!	!	!LO:N:acc=#
!	!	!	!LO:TX:a:t=P:problem:# above
.	.	.	16bn\
!	!	!	!LO:TX:t=P:problem:kreska pseudotaktowa
!	!	!	!LO:TX:a:t=P:problem:# above
.	.	.	16cc#X\JJ
*	*	*	*custos:dd
!	!	!	!LO:LB:g=original
=65-	=65-	=65-	=65-
1B-	.	4r	4dd\
.	.	4B-\	16b-y\LL
.	.	.	16ccny\
.	.	.	16dd\
.	.	.	16ee\JJ
.	.	4.B-\	16ff\LL
.	.	.	16gg\
!	!	!	!LO:TX:a:t=P:problem:♭ above
.	.	.	16ee-X\
.	.	.	16ff\JJ
.	.	.	16dd\LL
!	!	!	!LO:TX:a:t=P:problem:♭ above
.	.	.	16ee-X\
!	!	!LO:TX:t=P:problem:kreska pseudotaktowa	!
.	.	8A\	16cc\
!	!	!	!LO:TX:t=P:problem:kreska pseudotaktowa
.	.	.	16dd\JJ
=66-	=66-	=66-	=66-
!LO:TX:t=P:problem:kreska pseudotaktowa	!	!	!
1G	.	2G\	16b-/LL
.	.	.	16cc/
.	.	.	16a/
.	.	.	16b-/JJ
.	.	.	8.g/L
.	.	.	16a/Jk
*	*	*clefC4	*
*	*	*k[b-]	*
.	.	8r	2d/
.	.	8d\L	.
.	.	8d\	.
!	!	!LO:TX:t=P:problem:kreska pseudotaktowa	!
.	.	8d\J	.
=67-	=67-	=67-	=67-
1A	.	8.c#X\L	1r
.	.	16d\Jk	.
.	.	16e\LL	.
.	.	16A\	.
!	!	!LO:N:acc=#	!
!	!	!LO:TX:a:t=P:problem:# above	!
.	.	16Bn\	.
!	!	!LO:TX:a:t=P:problem:# above	!
.	.	16c#X\JJ	.
.	.	16d\LL	.
!	!	!LO:TX:a:t=P:problem:# above	!
.	.	16c#X\	.
.	.	16d\	.
!	!	!LO:TX:a:t=P:problem:# above	!
.	.	16c#X\JJ	.
.	.	16d\LL	.
!	!	!LO:TX:a:t=P:problem:# above	!
.	.	16c#X\	.
.	.	16B\	.
!	!	!LO:TX:t=P:problem:kreska pseudotaktowa	!
!	!	!LO:TX:a:t=P:problem:# above	!
.	.	16c#X\JJ	.
*	*	*custos:d	*
!	!	!LO:PB:g=original	!
=68-	=68-	=68-	=68-
2D/	.	4d\	4r
*	*	*clefF4	*
.	.	16D\LL	4aa\
.	.	16E\	.
.	.	16F\	.
.	.	16G\JJ	.
!LO:TX:t=P:problem:kreska pseudotaktowa	!	!	!
2D/	.	16A\LL	4aa\
!	!	!LO:SIC:v:o=16B\	!
.	.	16B-	.
.	.	16G\	.
.	.	16A\JJ	.
!	!	!	!LO:TX:t=P:problem:kreska pseudotaktowa
.	.	16F\LL	4aa\
.	.	16G\	.
.	.	16E\	.
!	!	!LO:TX:t=P:problem:kreska pseudotaktowa	!
.	.	16F\JJ	.
=69-	=69-	=69-	=69-
4C#X/	.	4C#X/	4eeny\
4AA/	.	8.A\L	16cc#X\LL
.	.	.	16ee\
.	.	.	16ff\
.	.	16G\Jk	16gg\JJ
2D/	.	8F\L	16aa\LL
.	.	.	16bb-\
!	!	!LO:SIC:o=8E\	!
.	.	8EJ	16gg\
.	.	.	16aa\JJ
*	*	*	*custos:ff
!	!	!LO:SIC:o=8D\J	!LO:PB:g=original
.	.	8DL	16ff\LL
.	.	.	16gg\
!	!	!LO:SIC:v:o=16C#/LL	!
.	.	16CL	16ee\
!	!	!	!LO:TX:t=P:problem:kreska pseudotaktowa
.	.	16BB-/JJ	16dd\JJ
=70-	=70-	=70-	=70-
!LO:TX:t=P:problem:kreska pseudotaktowa	!	!	!
!	!	!LO:TX:t=P:problem:kreska pseudotaktowa	!LO:TX:a:t=P:problem:# above
1AA	.	1AA	8cc#X\L
.	.	.	8aa\
.	.	.	8aa\
.	.	.	8aa\J
.	.	.	8aa\L
.	.	.	16gg\L
.	.	.	16ff\JJ
.	.	.	8ee\L
.	.	.	16aa\L
!	!	!	!LO:TX:t=P:problem:kreska pseudotaktowa
.	.	.	16gg\JJ
*custos:D	*	*	*
!LO:LB:g=original	!	!	!
=71-	=71-	=71-	=71-
1D	.	8r	2ff#X\
.	.	8d\L	.
.	.	8d\	.
.	.	8d\J	.
.	.	8d\L	2r
.	.	16cny\L	.
.	.	16B-y\JJ	.
.	.	8A\L	.
.	.	16d\L	.
.	.	16c\JJ	.
=72-	=72-	=72-	=72-
!LO:TX:t=P:problem:kreska pseudotaktowa	!	!	!
!	!	!LO:N:acc=#	!
1GG	#	2Bn\	16r
.	.	.	16dd\LL
.	.	.	16ee\
.	.	.	16ffny\JJ
.	.	.	16gg\LL
.	.	.	16dd\
.	.	.	16ee\
.	.	.	16ff\JJ
!	!	!LO:TX:t=P:problem:kreska pseudotaktowa	!
.	.	2r	8gg\L
.	.	.	16ff\L
.	.	.	16ee\JJ
.	.	.	8dd\L
.	.	.	16gg\L
.	.	.	16ff\JJ
*	*	*custos:G	*
!	!	!LO:LB:g=original	!
=73-	=73-	=73-	=73-
!	!	!	!LO:TX:t=P:problem:kreska pseudotaktowa
1Cny	.	16r	1ee
.	.	16G\LL	.
.	.	16A\	.
!	!	!LO:N:acc=#	!
!	!	!LO:TX:a:t=P:problem:# above	!
.	.	16Bn\JJ	.
.	.	16c\LL	.
.	.	16G\	.
.	.	16A\	.
!	!	!LO:N:acc=#	!
!	!	!LO:TX:a:t=P:problem:# above	!
!	!	!LO:SIC:o=16Bn\JJ	!
.	.	16BJJ	.
.	.	8c\L	.
.	.	16B\L	.
.	.	16A\JJ	.
.	.	8G\L	.
.	.	16c\L	.
!	!	!LO:TX:t=P:problem:kreska pseudotaktowa	!
.	.	16B\JJ	.
=74-	=74-	=74-	=74-
!LO:TX:t=P:problem:kreska pseudotaktowa	!	!	!
1D	.	16A\LL	16r
!	!	!LO:TX:a:t=P:problem:# above	!
.	.	16F#X\	16a/LL
.	.	16G\	16b-/
.	.	16A\JJ	16ccny/JJ
*	*	*	*custos:dd
!	!	!LO:SIC:v:o=16B\LL	!LO:LB:g=original
.	.	16B-LL	16dd\LL
!	!	!LO:TX:a:t=P:problem:# above	!
.	.	16F#X\	16a\
.	.	16G\	16b-\
.	.	16A\JJ	16cc\JJ
!	!	!LO:SIC:v:o=8B\L	!
.	.	8B-L	8dd\L
.	.	16A\L	16cc\L
.	.	16G\JJ	16b-\JJ
.	.	8F#X\L	8a/L
!	!	!LO:TX:t=P:problem:kreska pseudotaktowa	!
.	.	8F#\J	16dd/L
.	.	.	16cc/JJ
=75-	=75-	=75-	=75-
!	!	!	!LO:N:acc=#
1GG	.	1G	1bn
=76-	=76-	=76-	=76-
2r	.	2r	2r
!LO:TX:t=P:problem:kreska pseudotaktowa	!	!	!
2C/	.	2Cny/	2cc\
=77-	=77-	=77-	=77-
4G\	.	4G\	4dd\
8F\L	.	8Fny\L	4ee\
8Eny\J	.	8E\J	.
!	!	!	!LO:TX:t=P:problem:kreska pseudotaktowa
4.D/	.	4.D/	[2ff\
!LO:TX:t=P:problem:kreska pseudotaktowa	!	!	!
8C/	.	8C/	.
*	*	*custos:BB-	*
!	!	!LO:LB:g=original	!
=78-	=78-	=78-	=78-
2BB-/	.	8BB-/L	8ff\]
!	!	!	!LO:TX:a:t=P:problem:♭ above
.	.	8C/	4ee-X\
.	.	8D/	.
.	.	8E/J	8dd\
!LO:TX:t=P:problem:kreska pseudotaktowa	!	!	!
2F\	.	4F\	4.cc\
.	.	4FF/	.
!	!	!	!LO:TX:t=P:problem:kreska pseudotaktowa
.	.	.	8b-y/
=79-	=79-	=79-	=79-
0BB-	.	2BB-/	2b-/
!	!	!	!LO:TX:t=P:problem:kreska pseudotaktowa
.	.	4G\	2r
!	!	!LO:TX:t=P:problem:kreska pseudotaktowa	!
.	.	4A\	.
=80-	=80-	=80-	=80-
.	.	2B-y\	4dd\
!	!	!	!LO:TX:a:t=P:problem:♭ above
.	.	.	4ee-X\
.	.	8r	2ff\
.	.	8B-\L	.
.	.	8A\	.
!	!	!LO:TX:t=P:problem:kreska pseudotaktowa	!
.	.	8G\J	.
=81-	=81-	=81-	=81-
1F	.	2F\	8r
.	.	.	8ff\L
!	!	!	!LO:TX:a:t=P:problem:♭ above
.	.	.	8ee-X\
.	.	.	8dd\J
!	!	!	!LO:TX:t=P:problem:kreska pseudotaktowa
.	.	8r	2cc\
.	.	8F\L	.
.	.	8E\	.
!	!	!LO:TX:t=P:problem:kreska pseudotaktowa	!
.	.	8D\J	.
=82-	=82-	=82-	=82-
!LO:TX:t=P:problem:kreska pseudotaktowa	!	!	!
1C	.	2C/	8r
.	.	.	8cc/L
.	.	.	8b-/
.	.	.	8a/J
!	!	!	!LO:TX:t=P:problem:mixed beam
.	.	8r	8g/L
.	.	8BB-/L	8dd\
.	.	8AA/	8cc\
!	!	!LO:TX:t=P:problem:kreska pseudotaktowa	!
.	.	8GG/J	8b-\J
=83-	=83-	=83-	=83-
2.F\	.	4FF/	1a
.	.	4F\	.
.	.	16F\LL	.
.	.	16G\	.
.	.	16F\	.
.	.	16G\JJ	.
4E\	.	16E\LL	.
.	.	16F\	.
.	.	16E\	.
.	.	16F\JJ	.
*	*	*custos:D	*
!	!	!LO:LB:g=original	!
=84-	=84-	=84-	=84-
2D/	.	16D/LL	1r
.	.	16E/	.
.	.	16D/	.
.	.	16E/JJ	.
.	.	16C/LL	.
.	.	16D/	.
.	.	16C/	.
.	.	16D/JJ	.
2BB-/	.	8BB-/L	.
.	.	8C/	.
.	.	8D/	.
!	!	!LO:TX:t=P:problem:kreska pseudotaktowa	!
.	.	8BB-/J	.
*	*	*	*custos:g
!	!	!	!LO:LB:g=original
=85-	=85-	=85-	=85-
4C/	.	4C/	2r
8BB-/L	.	8BB-/L	.
8AA/J	.	8AA/J	.
2GG/	.	2GG/	4r
!	!	!	!LO:TX:t=P:problem:kreska pseudotaktowa
.	.	.	4gg\
=86-	=86-	=86-	=86-
2C/	.	1C	16gg\LL
.	.	.	16aa\
.	.	.	16gg\
.	.	.	16aa\JJ
.	.	.	16ff\LL
.	.	.	16gg\
.	.	.	16ff\
.	.	.	16gg\JJ
2c\	.	.	16eeny\LL
.	.	.	16ff\
.	.	.	16ee\
.	.	.	16ff\JJ
.	.	.	16dd\LL
.	.	.	16ee\
.	.	.	16dd\
!	!	!	!LO:TX:t=P:problem:kreska pseudotaktowa
.	.	.	16ee\JJ
*custos:A	*	*	*
!LO:LB:g=original	!	!	!
=87-	=87-	=87-	=87-
1A	.	1r	16cc\LL
.	.	.	16dd\
.	.	.	16cc\
.	.	.	16dd\JJ
.	.	.	16b-\LL
.	.	.	16cc\
.	.	.	16b-\
.	.	.	16cc\JJ
.	.	.	8a/L
.	.	.	8b-/
.	.	.	8cc/
!	!	!	!LO:TX:t=P:problem:kreska pseudotaktowa
.	.	.	8a/J
=88-	=88-	=88-	=88-
!LO:TX:t=P:problem:kreska pseudotaktowa	!	!	!LO:N:acc=#
1G	.	4r	8.bn/L
.	.	.	16cc/Jk
.	.	4G\	16dd\LL
.	.	.	16cc\JJ
.	.	.	16a/LL
!	!	!	!LO:TX:b:t=P:problem:# below
!	!	!	!LO:N:acc=#
!	!	!	!LO:SIC:o=16bn/JJ
.	.	.	16bJJ
*	*	*	*custos:cc
!	!	!	!LO:LB:g=original
.	.	16G\LL	16cc\LL
!	!	!	!LO:N:acc=#
!	!	!	!LO:TX:a:t=P:problem:# above
!	!	!	!LO:SIC:o=16bn\
.	.	16A\	16b
.	.	16G\	16cc\
!	!	!	!LO:N:acc=#
!	!	!	!LO:TX:a:t=P:problem:# above
!	!	!	!LO:SIC:o=16bn\
.	.	16A\JJ	16bJJ
!	!	!	!LO:SIC:o=16cc\
.	.	16F\LL	16ccLL
!	!	!	!LO:TX:a:t=P:problem:# above
!	!	!	!LO:SIC:o=16bn\
.	.	16G\	16b
.	.	16F\	16a\
!	!	!	!LO:N:acc=#
!	!	!LO:TX:t=P:problem:kreska pseudotaktowa	!LO:TX:a:t=P:problem:# above
!	!	!	!LO:SIC:o=16bn\JJ
.	.	16G\JJ	16b
=89-	=89-	=89-	=89-
!	!	!LO:TX:a:t=P:problem:♭ above	!
1C	-	16E-X\LL	1cc
.	.	16F\	.
.	.	16E-\	.
.	.	16F\JJ	.
.	.	16D\LL	.
!	!	!LO:TX:a:t=P:problem:♭ above	!
.	.	16E-X\	.
.	.	16D\	.
.	.	16E-\JJ	.
*	*	*custos:C	*
!	!	!LO:LB:g=original	!
.	.	8C/L	.
.	.	8D/	.
.	.	8E-X/	.
!	!	!LO:TX:t=P:problem:kreska pseudotaktowa	!
.	.	8C/J	.
=90-	=90-	=90-	=90-
1BB-	.	4BB-/	4r
.	.	4B-\	4dd\
.	.	4B-\	4dd\
.	.	8A\L	8cc\L
!	!	!LO:TX:t=P:problem:kreska pseudotaktowa	!
.	.	8G\J	8b-y\J
=91-	=91-	=91-	=91-
2F\	.	2F\	2a/
2E-X\	.	2E-X\	8r
.	.	.	8bb-\L
.	.	.	8aa\
!	!	!	!LO:TX:t=P:problem:kreska pseudotaktowa
.	.	.	8gg\J
=92-	=92-	=92-	=92-
!LO:TX:t=P:problem:kreska pseudotaktowa	!	!	!
1D	.	1D	2aa\
.	.	.	4r
!	!	!	!LO:TX:t=P:problem:kreska pseudotaktowa
.	.	.	4dd\
=93-	=93-	=93-	=93-
2.BB-/	.	0r	2dd\
.	.	.	8dd\L
.	.	.	16b-\L
.	.	.	16cc\JJ
4GG/	.	.	16dd\LL
!	!	!	!LO:TX:a:t=P:problem:♭ above
.	.	.	16ee-X\
.	.	.	16ff\
!	!	!	!LO:TX:t=P:problem:kreska pseudotaktowa
.	.	.	16dd\JJ
=94-	=94-	=94-	=94-
2C/	.	.	8ee-X\L
.	.	.	8dd\J
!	!	!	!LO:TX:a:t=P:problem:♭ above
.	.	.	16ee-X\
.	.	.	8dd\
.	.	.	16cc\
!LO:TX:t=P:problem:kreska pseudotaktowa	!	!	!
2BB-/	.	.	4dd\
.	.	.	16ee-X\LL
.	.	.	16dd\
.	.	.	16cc\
.	.	.	16b-\JJ
*	*	*	*custos:cc
!	!	!	!LO:LB:g=original
=95-	=95-	=95-	=95-
1FF	.	1r	4.cc\
.	.	.	8b-/
.	.	.	8cc\L
.	.	.	8b-\
.	.	.	8cc\
.	.	.	8dd\J
=96-	=96-	=96-	=96-
*	*	*clefC4	*
*	*	*k[b-]	*
2BB-/	.	2r	1b-
2BB-/	.	4r	.
!	!	!LO:TX:t=P:problem:kreska pseudotaktowa	!
.	.	4d\	.
=97-	=97-	=97-	=97-
2BB-/	.	2d\	0r
2BB-/	.	8d\L	.
.	.	16B-\L	.
!	!	!LO:SIC:o=16c\	!
.	.	16cJJ	.
!	!	!LO:SIC:o=16d\	!
.	.	16dLL	.
!	!	!LO:TX:a:t=P:problem:♭ above	!
.	.	16e-X\	.
.	.	16f\	.
!	!	!LO:TX:t=P:problem:kreska pseudotaktowa	!
.	.	16d\JJ	.
=98-	=98-	=98-	=98-
2E-X\	.	8e-X\L	.
.	.	8d\J	.
.	.	16e-X\	.
.	.	8d\	.
.	.	16c\	.
*	*	*custos:d	*
!LO:TX:t=P:problem:kreska pseudotaktowa	!	!LO:LB:g=original	!
2BB-/	.	4d\	.
.	.	16e-X\LL	.
.	.	16d\	.
.	.	16c\	.
!	!	!LO:TX:t=P:problem:kreska pseudotaktowa	!
.	.	16B-\JJ	.
=99-	=99-	=99-	=99-
1F	.	4.c\	1r
.	.	8B-\	.
.	.	8c\L	.
.	.	8B-\	.
.	.	8c\	.
!	!	!LO:TX:t=P:problem:kreska pseudotaktowa	!
.	.	8d\J	.
=100-	=100-	=100-	=100-
0BB-	.	2B-\	8r
.	.	.	16dd\LL
!	!	!	!LO:TX:a:t=P:problem:♭ above
.	.	.	16ee-X\JJ
.	.	.	8ff\L
!	!	!	!LO:TX:a:t=P:problem:♭ above
.	.	.	8ee-X\J
!	!	!	!LO:TX:t=P:problem:kreska pseudotaktowa
.	.	8r	2dd\
.	.	16d\LL	.
!	!	!LO:TX:a:t=P:problem:♭ above	!
.	.	16e-X\J	.
.	.	8f\	.
!	!	!LO:TX:t=P:problem:kreska pseudotaktowa	!
!	!	!LO:TX:a:t=P:problem:♭ above	!
.	.	8e-X\J	.
=101-	=101-	=101-	=101-
.	.	2d\	8r
.	.	.	16dd\LL
!	!	!	!LO:TX:a:t=P:problem:♭ above
.	.	.	16ee-X\JJ
.	.	.	16ff\LL
.	.	.	16gg\
!	!	!	!LO:TX:a:t=P:problem:♭ above
.	.	.	16ee-X\
.	.	.	16ff\JJ
!	!	!	!LO:TX:t=P:problem:kreska pseudotaktowa
.	.	8r	2dd\
.	.	16B-\LL	.
.	.	16c\JJ	.
.	.	16d\LL	.
.	.	16e-X\	.
.	.	16c\	.
!	!	!LO:TX:t=P:problem:kreska pseudotaktowa	!
.	.	16d\JJ	.
=102-	=102-	=102-	=102-
2F\	.	2A/	8r
.	.	.	16a/LL
.	.	.	16b-/JJ
.	.	.	8cc\L
.	.	.	8a\J
*	*	*clefF4	*
!LO:TX:t=P:problem:kreska pseudotaktowa	!	!	!LO:TX:t=P:problem:kreska pseudotaktowa
2G\	.	8r	2b-/
.	.	16GG/LL	.
.	.	16AA/J	.
.	.	8BB-/	.
.	.	8GG/J	.
*	*	*custos:D	*
!	!	!LO:LB:g=original	!
=103-	=103-	=103-	=103-
2D/	.	2D/	16r
.	.	.	16dd\LL
.	.	.	16cc\
.	.	.	16dd\JJ
*	*	*	*custos:b-
!	!	!	!LO:LB:g=original
.	.	.	16b-/LL
.	.	.	16cc/
.	.	.	16a/
.	.	.	16b-/JJ
!	!	!	!LO:TX:t=P:problem:kreska pseudotaktowa
2E-X\	.	16r	2g/
.	.	16G\LL	.
.	.	16F\	.
.	.	16G\JJ	.
.	.	16E-X\LL	.
.	.	16F\	.
.	.	16D\	.
!	!	!LO:TX:t=P:problem:kreska pseudotaktowa	!
!	!	!LO:TX:a:t=P:problem:♭ above	!
.	.	16E-X\JJ	.
=104-	=104-	=104-	=104-
!LO:TX:t=P:problem:kreska pseudotaktowa	!	!LO:TX:t=P:problem:mixed beam	!
1C	.	8C/L	8r
.	.	8A\	8cc\L
.	.	8G\	8b-\
.	.	8A\J	8cc\J
.	.	8F\L	8a/L
.	.	8G\	8b-/J
!	!	!LO:TX:a:t=P:problem:♭ above	!
.	.	8E-X\	8g/L
.	.	8F\J	8a/J
=105-	=105-	=105-	=105-
1D	.	4D/	8f#X/L
.	.	.	8g/
.	.	4C/	8a/
.	.	.	8b-/J
!	!	!LO:TX:t=P:problem:kreska pseudotaktowa	!
.	.	2D/	4.a/
!	!	!	!LO:TX:t=P:problem:kreska pseudotaktowa
.	.	.	8g/
=106-	=106-	=106-	=106-
!	!	!LO:TX:t=P:problem:mixed beam	!
2GG/	.	8GG/L	2g/
.	.	8G\	.
.	.	8G\	.
.	.	8G\J	.
2G\	.	8G\L	8r
.	.	16G\L	8dd\L
.	.	16F\JJ	.
.	.	16G\LL	8dd\
.	.	16F\	.
!	!	!	!LO:TX:t=P:problem:kreska pseudotaktowa
.	.	16G\	8dd\J
!	!	!LO:TX:t=P:problem:kreska pseudotaktowa	!
.	.	16A\JJ	.
*	*	*custos:B-	*
!	!	!LO:LB:g=original	!
=107-	=107-	=107-	=107-
1B-	.	8B-\L	8dd\L
.	.	8B-\	16dd\L
.	.	.	16cc\JJ
.	.	8B-\	16dd\LL
.	.	.	16cc\
.	.	8B-\J	16dd\
.	.	.	16eeny\JJ
.	.	8B-\	8ff\L
.	.	4A\	8ff\
.	.	.	8ff\
!	!	!	!LO:TX:t=P:problem:kreska pseudotaktowa
!	!	!LO:TX:t=P:problem:kreska pseudotaktowa	!
.	.	8G\	8ff\J
*	*	*	*custos:ff
!LO:TX:t=P:problem:kreska pseudotaktowa	!	!	!LO:LB:g=original
=108-	=108-	=108-	=108-
1F	.	8F\L	8ff\
!	!	!	!LO:TX:a:t=P:problem:♭ above
.	.	8F\	4ee-X\
.	.	8F\	.
.	.	8F\J	8dd\
.	.	8F\L	8cc\L
.	.	16F\L	8cc\
.	.	16G\JJ	.
.	.	16A\LL	8cc\
.	.	16G\	.
!	!	!	!LO:TX:t=P:problem:kreska pseudotaktowa
.	.	16A\	8cc\J
!	!	!LO:TX:t=P:problem:kreska pseudotaktowa	!
.	.	16B-\JJ	.
*custos:C	*	*	*
!LO:LB:g=original	!	!	!
=109-	=109-	=109-	=109-
!	!	!LO:TX:t=P:problem:mixed beam	!
2C/	.	8c\L	8cc\L
.	.	8C\	16cc\L
.	.	.	16b-\JJ
.	.	8C\	16cc\LL
.	.	.	16b-\
.	.	8C\J	16cc\
.	.	.	16dd\JJ
2C/	.	8C/L	8ee-X\L
.	.	16C/L	8ee-\
.	.	16BB-/JJ	.
.	.	16C/LL	8ee-\
.	.	16BB-/	.
!	!	!	!LO:TX:t=P:problem:kreska pseudotaktowa
.	.	16C/	8ee-\J
!	!	!LO:TX:t=P:problem:kreska pseudotaktowa	!
.	.	16D/JJ	.
=110-	=110-	=110-	=110-
!LO:TX:t=P:problem:kreska pseudotaktowa	!	!	!
1E-X	.	8E-X\L	8ee-X\
.	.	8E-\	4dd\
.	.	8E-\	.
.	.	8E-\J	8cc\
*	*	*custos:E-	*
!	!	!LO:LB:g=original	!
.	.	8E-\	8b-/L
.	.	4D/	8b-/
.	.	.	8b-/
!	!	!LO:TX:t=P:problem:kreska pseudotaktowa	!LO:TX:t=P:problem:kreska pseudotaktowa
.	.	8C/	8b-/J
=111-	=111-	=111-	=111-
1BB-	.	8BB-/L	8b-/L
.	.	8BB-/	16b-/L
.	.	.	16a/JJ
.	.	8BB-/	16b-/LL
.	.	.	16a/
.	.	8BB-/J	16b-/
.	.	.	16cc/JJ
.	.	8BB-/L	8dd\
.	.	16BB-/L	4cc\
.	.	16AA/JJ	.
.	.	16BB-/LL	.
.	.	16C/	.
!	!	!	!LO:TX:t=P:problem:kreska pseudotaktowa
.	.	16D/	8b-/
!	!	!LO:TX:t=P:problem:kreska pseudotaktowa	!
.	.	16Eny/JJ	.
*	*	*	*custos:a
!	!	!	!LO:LB:g=original
=112-	=112-	=112-	=112-
!	!	!	!LO:TX:t=P:problem:mixed beam
2F\	.	2F\	16a/LL
.	.	.	16dd\
.	.	.	16cc\
.	.	.	16dd\JJ
.	.	.	16b-/LL
.	.	.	16cc/
.	.	.	16a/
.	.	.	16b-/JJ
!	!	!	!LO:TX:t=P:problem:kreska pseudotaktowa
2G\	.	16r	2g/
.	.	16G\LL	.
.	.	16F\	.
.	.	16G\JJ	.
.	.	16E-X\LL	.
.	.	16F\	.
.	.	16D\	.
!	!	!LO:TX:t=P:problem:kreska pseudotaktowa	!
!	!	!LO:TX:a:t=P:problem:♭ above	!
.	.	16E-X\JJ	.
=113-	=113-	=113-	=113-
!	!	!LO:TX:t=P:problem:mixed beam	!
1C	-	8C/L	8r
.	.	8A\	8cc\L
.	.	8G\	8b-\
.	.	8A\J	8cc\J
.	.	8F\L	8a/L
.	.	8G\	8b-/
!	!	!LO:TX:a:t=P:problem:♭ above	!
.	.	8E-X\	8g/
!	!	!LO:TX:t=P:problem:kreska pseudotaktowa	!LO:TX:t=P:problem:kreska pseudotaktowa
.	.	8F\J	8a/J
=114-	=114-	=114-	=114-
2D/	.	8D/L	16f#X/LL
.	.	.	16g/
.	.	8C/	16a/
.	.	.	16b-/JJ
.	.	8BB-/	16cc\LL
.	.	.	16dd\
.	.	8AA/J	16eeny\
!	!	!	!LO:TX:a:t=P:problem:# above
.	.	.	16ff#X\JJ
!LO:TX:t=P:problem:kreska pseudotaktowa	!	!	!
2GG/	.	4GG/	8gg\L
.	.	.	16aa\L
.	.	.	16bb-\JJ
.	.	8FF/L	8.aa\L
.	.	8EE/J	.
!	!	!	!LO:TX:t=P:problem:kreska pseudotaktowa
.	.	.	16gg\Jk
=115-	=115-	=115-	=115-
!	!	!LO:TX:t=P:problem:kreska pseudotaktowa	!
1D	.	1DD	8ff#X\L
.	.	.	8gg\
.	.	.	8aa\
.	.	.	8bb-\J
.	.	.	2aa\
*	*	*	*custos:gg
!	!	!	!LO:LB:g=original
=116-	=116-	=116-	=116-
!	!	!LO:TX:t=P:problem:mixed beam	!
2GG/	.	8GG/L	2gg\
.	.	8G\	.
.	.	8G\	.
.	.	8G\J	.
2G\	.	4G\	8r
.	.	.	8dd\L
.	.	16G\LL	8dd\
.	.	16F\	.
!	!	!	!LO:TX:t=P:problem:kreska pseudotaktowa
.	.	16G\	8dd\J
!	!	!LO:TX:t=P:problem:kreska pseudotaktowa	!
.	.	16A\JJ	.
=117-	=117-	=117-	=117-
1B-	.	8B-\L	8dd\L
.	.	8B-\	16dd\L
.	.	.	16cc\JJ
.	.	8B-\	16dd\LL
.	.	.	16cc\
.	.	8B-\J	16dd\
.	.	.	16ee\JJ
.	.	8B-\	8ffny\L
.	.	4A\	8ff\
.	.	.	8ff\
!	!	!LO:TX:t=P:problem:kreska pseudotaktowa	!LO:TX:t=P:problem:kreska pseudotaktowa
.	.	8G\	8ff\J
=118-	=118-	=118-	=118-
!LO:TX:t=P:problem:kreska pseudotaktowa	!	!	!
1F	.	8F\L	8ff\
.	.	8F\	4ee-X\
.	.	8F\	.
.	.	8F\J	8dd\
.	.	8F\L	8cc\L
.	.	16F\L	8cc\
.	.	16G\JJ	.
.	.	16A\LL	8cc\
.	.	16G\	.
!	!	!	!LO:TX:t=P:problem:kreska pseudotaktowa
.	.	16A\	8cc\J
.	.	16B-\JJ	.
*	*	*custos:c	*
!	!	!LO:LB:g=original	!
=119-	=119-	=119-	=119-
2C/	.	8c\L	8cc\L
.	.	8C/	16cc\L
.	.	.	16b-\JJ
.	.	8C/	16cc\LL
.	.	.	16b-\
.	.	8C/J	16cc\
.	.	.	16dd\JJ
2C/	.	8C/L	8ee-X\L
.	.	16C/L	8ee-\
.	.	16BB-/JJ	.
.	.	16C/LL	8ee-\
.	.	16BB-/	.
!	!	!	!LO:TX:t=P:problem:kreska pseudotaktowa
.	.	16C/	8ee-\J
!	!	!LO:TX:t=P:problem:kreska pseudotaktowa	!
.	.	16D/JJ	.
*	*	*	*custos:ee
!	!	!	!LO:LB:g=original
=120-	=120-	=120-	=120-
!LO:TX:t=P:problem:kreska pseudotaktowa	!	!	!
1E-X	.	8E-X\L	8ee-y\
.	.	8E-\	4dd\
.	.	8E-\	.
.	.	8E-\J	8cc\
.	.	8E-\	8b-/L
.	.	4D/	8b-/
.	.	.	8b-/
!	!	!LO:TX:t=P:problem:kreska pseudotaktowa	!LO:TX:t=P:problem:kreska pseudotaktowa
.	.	8C/	8b-/J
=121-	=121-	=121-	=121-
1BB-	.	8BB-/L	8b-/L
.	.	8BB-/	16b-/L
.	.	.	16a/JJ
.	.	8BB-/	16b-/LL
.	.	.	16a/
.	.	8BB-/J	16b-/
.	.	.	16cc/JJ
.	.	8BB-/L	8dd\
.	.	16BB-/L	4cc\
.	.	16AA/JJ	.
.	.	16BB-/LL	.
.	.	16C/	.
!	!	!	!LO:TX:t=P:problem:kreska pseudotaktowa
.	.	16D/	8b-/
!	!	!LO:TX:t=P:problem:kreska pseudotaktowa	!
.	.	16Eny/JJ	.
=122-	=122-	=122-	=122-
!	!	!	!LO:TX:t=P:problem:mixed beam
2F\	.	2F\	16a/LL
.	.	.	16dd\
.	.	.	16cc\
.	.	.	16dd\JJ
.	.	.	16b-/LL
.	.	.	16cc/
.	.	.	16a/
.	.	.	16b-/JJ
!LO:TX:t=P:problem:kreska pseudotaktowa	!	!	!LO:TX:t=P:problem:kreska pseudotaktowa
2G\	.	16r	2g/
.	.	16G\LL	.
.	.	16F\	.
.	.	16G\JJ	.
!	!	!LO:TX:a:t=P:problem:♭ above	!
.	.	16E-X\LL	.
.	.	16F\	.
.	.	16D\	.
.	.	16E-\JJ	.
!	!	!LO:LB:g=original	!
=123-	=123-	=123-	=123-
1C	-	8C/L	8r
.	.	8A\	8cc\L
.	.	8G\	8b-\
.	.	8A\J	8cc\J
.	.	8F\L	8a/L
.	.	8G\	8b-/J
!	!	!LO:TX:a:t=P:problem:♭ above	!
.	.	8E-X\	8g/L
!	!	!	!LO:TX:t=P:problem:kreska pseudotaktowa
!	!	!LO:TX:t=P:problem:kreska pseudotaktowa	!
.	.	8F\J	8a/J
*	*	*	*custos:f#
!	!	!	!LO:LB:g=original
=124-	=124-	=124-	=124-
2D/	.	8D/L	16f#X/LL
.	.	.	16g/
.	.	8C/	16a/
.	.	.	16b-/JJ
.	.	8BB-/	16cc\LL
.	.	.	16dd\
.	.	8AA/J	16eeny\
!	!	!	!LO:TX:a:t=P:problem:# above
.	.	.	16ff#X\JJ
2GG/	.	4GG/	8gg\L
.	.	.	16aa\L
.	.	.	16bb-\JJ
.	.	8FF/L	8.aa\L
.	.	8EE/J	.
.	.	.	16gg\Jk
=125-	=125-	=125-	=125-
1D	.	1DD	8ff#X\L
.	.	.	8gg\
.	.	.	8aa\
.	.	.	8bb-\J
.	.	.	2aa\
=126-	=126-	=126-	=126-
!LO:SIC:o=1GGl;;	!	!LO:SIC:o=1GGl;;	!LO:SIC:o=1ggl;;
1GG;	.	1GG;	1gg;
==	==	==	==
*-	*-	*-	*-
!!!system-decoration: [(g1)]s3
!!!RDF**kern: l = terminal long
!!!filter-modern: sic -sq | shed -e "s/TX(.*):t=P:/tx$1:t=P:/LG" | shed -k -e "s/LO:N:acc/LO:n:acc:/L" | shed -e "s/^(\d+[\/\\]right)/$1yy/I;s/^(\d+[\/\\]left)/$1yy/I" | shed -k -e "s/#X/#/g" |shed -k -e "s/-X/-/g" | shed -e "s/^custos:/Xcustos:/I" | shed -k -e "s/LO:N:vis/LO:n:vis:/L" | shed -e "s/:rj/:RJ/L" | shed -e "s/LO:DY:(a|b|rj)/LO:dy:$1/L" | shed -e "s/-//B" | tie -s | autostem -r  | modori -m
!!!ENC: Filip Voros
!!!END: 2022-11-03
!!!EED: Natalia Wrzos
!!!EEV: 2022-11-12
!!!EST: revision finshed 2022-11-29
!!!ENC-modern: Andrzej Borzym
!!!END-modern: 2022-11-29
